packages/tokens/icons/productPriceTag/size32Px.svg

<svg viewBox="0 0 32 32" fill="none" xmlns="http://www.w3.org/2000/svg" width="1em" height="1em"><path d="M20 14.75V14.5V14.5C20 13.1193 18.8807 12 17.5 12H14.5C13.1193 12 12 13.1193 12 14.5V14.5C12 15.8807 13.1193 17 14.5 17H17.5C18.8807 17 20 18.1193 20 19.5V19.5C20 20.8807 18.8807 22 17.5 22H14.5C13.1193 22 12 20.8807 12 19.5V19.5V19" stroke="currentColor" stroke-linecap="round"/><path d="M16 10L16 24" stroke="currentColor" stroke-linecap="round"/><path d="M14.7473 4.48083C14.1166 4.65637 13.5799 5.07231 13.2526 5.63927M14.7473 4.48083L13.2526 5.63927M14.7473 4.48083L14.8814 4.96252L13.2526 5.63927M14.7473 4.48083L21.6824 2.55056C22.9832 2.1885 24.3364 2.92478 24.739 4.21361L27.0268 11.5376C27.2351 12.2045 27.1548 12.928 26.8055 13.533L18.2548 28.3434C17.5644 29.5391 16.0355 29.9488 14.8397 29.2584L5.58705 23.9164C4.39132 23.226 3.98163 21.697 4.67198 20.5013L13.2526 5.63927" stroke="currentColor" stroke-linecap="round"/><circle cx="21.7267" cy="6.72667" r="1.5" transform="rotate(29.5847 21.7267 6.72667)" stroke="currentColor"/></svg>

<svg xmlns="http://www.w3.org/2000/svg" fill="none" viewBox="0 0 32 32" width="1em" height="1em"><path stroke="currentColor" stroke-linecap="round" d="M20 14.75v-.25 0a2.5 2.5 0 0 0-2.5-2.5h-3a2.5 2.5 0 0 0-2.5 2.5v0a2.5 2.5 0 0 0 2.5 2.5h3a2.5 2.5 0 0 1 2.5 2.5v0a2.5 2.5 0 0 1-2.5 2.5h-3a2.5 2.5 0 0 1-2.5-2.5v0-.5m4-9v14"/><path stroke="currentColor" stroke-linecap="round" d="M14.747 4.48a2.5 2.5 0 0 0-1.494 1.16m1.494-1.16-1.494 1.16m1.494-1.16.134.483-1.628.676m1.494-1.158 6.935-1.93a2.5 2.5 0 0 1 3.057 1.663l2.288 7.324a2.5 2.5 0 0 1-.222 1.995l-8.55 14.81a2.5 2.5 0 0 1-3.415.915l-9.253-5.342a2.5 2.5 0 0 1-.915-3.415l8.58-14.862"/><circle cx="21.727" cy="6.727" r="1.5" stroke="currentColor" transform="rotate(29.585 21.727 6.727)"/></svg>
